icons/1_Primary/SourceForge.svg

<svg width="1024" height="1024" viewBox="0 0 1024 1024" fill="none" xmlns="http://www.w3.org/2000/svg">
<g clip-path="url(#clip0_2_3510)">
<path d="M512 1024C794.77 1024 1024 794.77 1024 512C1024 229.23 794.77 0 512 0C229.23 0 0 229.23 0 512C0 794.77 229.23 1024 512 1024Z" fill="#F8C18C"/>
<path d="M569.58 471.57C569.14 468.95 573.51 467.64 575.26 470.7C583.13 485.56 590.99 505.7 590.99 526.64V527.08C590.99 572.08 556.9 608.81 514.99 608.81C473.08 608.81 438.99 572.1 438.99 527.08V526.64C438.99 452.78 498.43 440.98 495.37 393.78C495.249 392.872 495.409 391.949 495.828 391.135C496.248 390.321 496.906 389.655 497.716 389.226C498.526 388.798 499.447 388.628 500.356 388.74C501.265 388.851 502.118 389.239 502.8 389.85C518.53 404.27 548.25 442.3 548.25 525.77C548.17 574.72 584 535.38 569.58 471.57ZM462.5 700.15L491.78 670.43C494.4 667.37 494.4 662.56 491.78 659.94L339.26 507C338.324 506.09 337.58 505.002 337.072 503.8C336.563 502.597 336.301 501.305 336.301 500C336.301 498.695 336.563 497.402 337.072 496.2C337.58 494.998 338.324 493.91 339.26 493L532 299.81C533.058 298.832 533.792 297.555 534.105 296.148C534.417 294.742 534.294 293.274 533.75 291.94C533.235 290.628 532.33 289.506 531.157 288.724C529.984 287.943 528.599 287.54 527.19 287.57H468.19C466.453 287.684 464.785 288.291 463.38 289.32L258 494.74C255.38 497.8 255.38 502.61 258 505.23L452.45 699.71C453.873 701.052 455.736 701.83 457.69 701.9C459.427 701.786 461.096 701.178 462.5 700.15ZM496.59 736.42H555.15C556.126 736.427 557.093 736.236 557.994 735.86C558.894 735.484 559.709 734.929 560.39 734.23L765.81 528.83C766.502 528.143 767.052 527.326 767.426 526.426C767.801 525.525 767.994 524.56 767.994 523.585C767.994 522.61 767.801 521.644 767.426 520.744C767.052 519.844 766.502 519.027 765.81 518.34L571.81 323.85C570.5 322.54 569.19 321.23 567 321.23C566.024 321.223 565.057 321.413 564.156 321.79C563.256 322.166 562.441 322.721 561.76 323.42L532 353.13C529.38 356.19 529.38 361 532 363.62L685 516.62C686.009 517.477 686.809 518.553 687.34 519.766C687.87 520.979 688.116 522.297 688.06 523.62C687.974 526.259 686.879 528.765 685 530.62L491.79 723.75C490.732 724.728 489.998 726.005 489.686 727.411C489.373 728.818 489.497 730.286 490.04 731.62C490.555 732.932 491.46 734.054 492.634 734.836C493.807 735.617 495.191 736.02 496.6 735.99L496.59 736.42Z" fill="white"/>
</g>
<defs>
<clipPath id="clip0_2_3510">
<rect width="1024" height="1024" fill="white"/>
</clipPath>
</defs>
</svg>

<svg xmlns="http://www.w3.org/2000/svg" viewBox="0 0 1024 1024">
   <circle cx="512" cy="512" r="512" style="fill:#f60"/>
   <path d="M569.58 471.57c-.44-2.62 3.93-3.93 5.68-.87 7.87 14.86 15.73 35 15.73 55.94v.44c0 45-34.09 81.73-76 81.73s-76-36.71-76-81.73v-.44c0-73.86 59.44-85.66 56.38-132.86a4.48 4.48 0 0 1 7.43-3.93c15.73 14.42 45.45 52.45 45.45 135.92-.08 48.95 35.75 9.61 21.33-54.2ZM462.5 700.15l29.28-29.72c2.62-3.06 2.62-7.87 0-10.49L339.26 507a9.76 9.76 0 0 1 0-14L532 299.81a7.08 7.08 0 0 0 1.75-7.87 6.89 6.89 0 0 0-6.56-4.37h-59a9.16 9.16 0 0 0-4.81 1.75L258 494.74c-2.62 3.06-2.62 7.87 0 10.49l194.45 194.48a8.06 8.06 0 0 0 5.24 2.19 9.16 9.16 0 0 0 4.81-1.75Zm34.09 36.27h58.56a7.24 7.24 0 0 0 5.24-2.19l205.42-205.4a7.39 7.39 0 0 0 0-10.49l-194-194.49c-1.31-1.31-2.62-2.62-4.81-2.62a7.24 7.24 0 0 0-5.24 2.19L532 353.13c-2.62 3.06-2.62 7.87 0 10.49l153 153a8.7 8.7 0 0 1 3.06 7 10.31 10.31 0 0 1-3.06 7L491.79 723.75a7.08 7.08 0 0 0-1.75 7.87 6.89 6.89 0 0 0 6.56 4.37Z" style="fill:#fff"/>
</svg>
